assets/images/payments/ogone-dark.svg

<svg width="100" height="60" viewBox="0 0 100 60" version="1.1" xmlns="http://www.w3.org/2000/svg" xmlns:xlink="http://www.w3.org/1999/xlink"><title>Ogone-dark</title><desc>Created with Sketch.</desc><g id="Dark-Payment-badges" stroke="none" stroke-width="1" fill="none" fill-rule="evenodd" transform="translate(-610.000000, -889.000000)"><g id="Ogone-dark" transform="translate(610.000000, 889.000000)"><rect id="Rectangle" fill="#286AA6" x="0" y="0" width="100" height="60" rx="4"/><path d="M19.0200798,31.168358 C21.5688002,31.168358 23.6506715,29.3599039 23.6506715,26.8401696 C23.6506715,25.3162651 22.5379888,24.3204352 20.7790343,24.3204352 C18.1586762,24.3204352 16.1843709,26.4336701 16.1843709,28.7503421 C16.1843709,30.2133654 17.4407669,31.168358 19.0200798,31.168358 L19.0200798,31.168358 Z M19.1278648,32.6517998 C15.3229673,32.6517998 13.0614544,31.127708 13.0614544,28.5673237 C13.0614544,25.3771463 16.3997218,22.9591305 20.7790343,22.9591305 C24.4404375,22.9591305 26.7733689,24.5439162 26.7733689,26.9417007 C26.7733689,30.3555465 23.363464,32.6517998 19.1278648,32.6517998 L19.1278648,32.6517998 Z" id="Fill-1" fill="#FFF"/><path d="M34.8572424,24.6456347 C33.2060729,24.6456347 31.6626884,25.6615086 31.6626884,26.7588697 C31.6626884,27.8358121 32.8831561,28.6079737 34.5700349,28.6079737 C36.5802686,28.6079737 37.7288797,27.4903813 37.7288797,26.4745074 C37.7288797,25.3973776 36.5084119,24.6456347 34.8572424,24.6456347 L34.8572424,24.6456347 Z M33.7086314,33.3020116 C31.6267601,33.5254926 29.5446697,34.0335232 29.5446697,34.6432723 C29.5446697,35.3137153 31.1958392,35.7404461 33.8880539,35.7404461 C35.9699252,35.7404461 37.2981779,35.2730654 37.2981779,34.602435 C37.2981779,34.0335232 35.6110801,33.5459112 33.7086314,33.3020116 L33.7086314,33.3020116 Z M47.8957199,24.5845661 L39.5594718,24.5845661 C40.385166,25.2551965 40.6364453,25.7632271 40.6364453,26.3932075 C40.6364453,27.917112 39.3441209,29.1160043 36.8674761,29.7053348 C34.9650274,30.1522968 31.3754809,30.0507656 31.3754809,30.9246457 C31.3754809,32.0624694 40.2055244,31.4122576 40.2055244,34.4400226 C40.2055244,35.9436958 37.4416721,37.0408695 33.6367747,37.0408695 C29.580598,37.0408695 26.6373232,36.045227 26.6373232,34.6837349 C26.6373232,33.6067925 28.8269795,33.1191805 31.2676959,32.8346309 L31.2676959,32.793981 C29.2576813,32.3672503 28.4679153,31.8998696 28.4679153,31.1887766 C28.4679153,30.4368464 29.8318773,29.7866346 31.6626884,29.5020851 C29.7602397,28.9940545 28.7551228,28.0797118 28.7551228,26.8808195 C28.7551228,24.7878159 31.4832658,23.2434927 34.7496765,23.2434927 L48.2188557,23.2434927 L47.8957199,24.5845661 L47.8957199,24.5845661 Z" id="Fill-2" fill="#FFF"/><path d="M48.353587,31.168358 C50.9020883,31.168358 52.9839596,29.3599039 52.9839596,26.8401696 C52.9839596,25.3162651 51.8712769,24.3204352 50.1123224,24.3204352 C47.4919644,24.3204352 45.517659,26.4336701 45.517659,28.7503421 C45.517659,30.2133654 46.774055,31.168358 48.353587,31.168358 L48.353587,31.168358 Z M48.4611529,32.6517998 C44.6562554,32.6517998 42.3949616,31.127708 42.3949616,28.5673237 C42.3949616,25.3771463 45.7332289,22.9591305 50.1123224,22.9591305 C53.7737256,22.9591305 56.1068761,24.5439162 56.1068761,26.9417007 C56.1068761,30.3555465 52.6969712,32.6517998 48.4611529,32.6517998 L48.4611529,32.6517998 Z" id="Fill-3" fill="#FFF"/><path d="M62.2806333,24.8486971 L62.3524899,24.889347 C64.1114444,23.6702235 65.9061082,23.1013116 67.7007719,23.1013116 C71.1108959,23.1013116 71.9722994,25.1130154 71.5415977,26.6166885 L69.9982131,32.3672503 L66.9828626,32.3672503 L68.4546095,26.55562 C68.849383,24.9706469 67.6291343,24.5236849 66.695655,24.5236849 C65.8342515,24.5236849 64.1471537,24.8691157 61.8499315,26.55562 L60.3781846,32.3672503 L57.3630531,32.3672503 L59.6243469,23.2434927 L62.6754067,23.2434927 L62.2806333,24.8486971" id="Fill-4" fill="#FFF"/><path d="M83.996897,26.4336701 C83.996897,25.2754278 83.0993461,24.3815038 81.0893314,24.3815038 C79.2946677,24.3815038 78.0742,25.0519468 77.2485057,26.4336701 L83.996897,26.4336701 L83.996897,26.4336701 Z M85.7197041,31.6357386 C84.1044629,32.306369 82.2738709,32.6517998 80.3354938,32.6517998 C76.2433888,32.6517998 73.5871025,30.904227 73.5871025,28.2423115 C73.5871025,25.2551965 76.9255889,22.9591305 81.2330448,22.9591305 C84.8225913,22.9591305 87.5145869,24.8486971 86.8323869,27.6327497 L76.7818756,27.6327497 C76.028257,30.0709969 78.3973358,31.2292392 80.9099089,31.2292392 C82.4173651,31.2292392 84.1403913,30.8229271 86.150625,29.9898843 L85.7197041,31.6357386 L85.7197041,31.6357386 Z" id="Fill-5" fill="#FFF"/></g></g></svg>

<svg width="100" height="60" xmlns="http://www.w3.org/2000/svg"><g fill="none" fill-rule="evenodd"><rect fill="#286AA6" width="100" height="60" rx="4"/><path d="M19.02 31.168c2.549 0 4.63-1.808 4.63-4.328 0-1.524-1.112-2.52-2.871-2.52-2.62 0-4.595 2.114-4.595 4.43 0 1.463 1.257 2.418 2.836 2.418zm.108 1.484c-3.805 0-6.067-1.524-6.067-4.085 0-3.19 3.339-5.608 7.718-5.608 3.661 0 5.994 1.585 5.994 3.983 0 3.414-3.41 5.71-7.645 5.71zm15.729-8.006c-1.65 0-3.194 1.016-3.194 2.113 0 1.077 1.22 1.849 2.907 1.849 2.01 0 3.159-1.118 3.159-2.133 0-1.078-1.22-1.83-2.872-1.83zm-1.148 8.656c-2.082.223-4.164.732-4.164 1.341 0 .67 1.65 1.097 4.343 1.097 2.082 0 3.41-.467 3.41-1.138 0-.568-1.687-1.056-3.59-1.3zm14.187-8.717h-8.337c.826.67 1.077 1.178 1.077 1.808 0 1.524-1.292 2.723-3.769 3.312-1.902.447-5.492.346-5.492 1.22 0 1.137 8.83.487 8.83 3.515 0 1.504-2.763 2.6-6.568 2.6-4.056 0-7-.995-7-2.356 0-1.077 2.19-1.565 4.63-1.85v-.04c-2.01-.427-2.8-.894-2.8-1.605 0-.752 1.365-1.402 3.196-1.687-1.903-.508-2.908-1.422-2.908-2.621 0-2.093 2.728-3.638 5.995-3.638h13.469l-.323 1.342z" fill="#FFF"/><path d="M48.354 31.168c2.548 0 4.63-1.808 4.63-4.328 0-1.524-1.113-2.52-2.872-2.52-2.62 0-4.594 2.114-4.594 4.43 0 1.463 1.256 2.418 2.836 2.418zm.107 1.484c-3.805 0-6.066-1.524-6.066-4.085 0-3.19 3.338-5.608 7.717-5.608 3.662 0 5.995 1.585 5.995 3.983 0 3.414-3.41 5.71-7.646 5.71zm13.819-7.803l.072.04c1.76-1.219 3.554-1.788 5.349-1.788 3.41 0 4.271 2.012 3.84 3.516l-1.543 5.75h-3.015l1.472-5.811c.394-1.585-.826-2.032-1.76-2.032-.86 0-2.548.345-4.845 2.032l-1.472 5.811h-3.015l2.261-9.124h3.051l-.394 1.606m21.716 1.585c0-1.159-.898-2.052-2.908-2.052-1.794 0-3.015.67-3.84 2.052h6.748zm1.723 5.202c-1.616.67-3.446 1.016-5.385 1.016-4.092 0-6.748-1.748-6.748-4.41 0-2.987 3.339-5.283 7.646-5.283 3.59 0 6.282 1.89 5.6 4.674H76.781c-.754 2.438 1.615 3.596 4.128 3.596 1.507 0 3.23-.406 5.24-1.24l-.43 1.647z" fill="#FFF"/></g></svg>
